status/scalable-light/battery-full-charging.svg

<?xml version="1.0" encoding="UTF-8" standalone="no"?>
<!-- Created with Inkscape (http://www.inkscape.org/) -->

<svg
   xmlns:dc="http://purl.org/dc/elements/1.1/"
   xmlns:cc="http://creativecommons.org/ns#"
   xmlns:rdf="http://www.w3.org/1999/02/22-rdf-syntax-ns#"
   xmlns:svg="http://www.w3.org/2000/svg"
   xmlns="http://www.w3.org/2000/svg"
   xmlns:sodipodi="http://sodipodi.sourceforge.net/DTD/sodipodi-0.dtd"
   xmlns:inkscape="http://www.inkscape.org/namespaces/inkscape"
   id="svg7384"
   style="enable-background:new"
   height="16"
   width="16"
   version="1.1"
   inkscape:version="0.91 r13725"
   sodipodi:docname="battery-full-charged-symbolic.svg">
  <sodipodi:namedview
     pagecolor="#a1a1a1"
     bordercolor="#666666"
     borderopacity="1"
     objecttolerance="10"
     gridtolerance="10"
     guidetolerance="10"
     inkscape:pageopacity="0"
     inkscape:pageshadow="2"
     inkscape:window-width="1366"
     inkscape:window-height="633"
     id="namedview11"
     showgrid="false"
     inkscape:zoom="22.627417"
     inkscape:cx="4.3154136"
     inkscape:cy="8.103107"
     inkscape:window-x="0"
     inkscape:window-y="33"
     inkscape:window-maximized="1"
     inkscape:current-layer="svg7384" />
  <metadata
     id="metadata90">
    <rdf:RDF>
      <cc:Work
         rdf:about="">
        <dc:format>image/svg+xml</dc:format>
        <dc:type
           rdf:resource="http://purl.org/dc/dcmitype/StillImage" />
        <dc:title>Paper Symbolic Icon Theme</dc:title>
      </cc:Work>
    </rdf:RDF>
  </metadata>
  <title
     id="title8473">Paper Symbolic Icon Theme</title>
  <defs
     id="defs7386">
    <filter
       id="filter7554"
       style="color-interpolation-filters:sRGB">
      <feBlend
         id="feBlend7556"
         in2="BackgroundImage"
         mode="darken" />
    </filter>
  </defs>
  <g
     style="fill:#ffffff;fill-opacity:1"
     id="g4250"
     transform="matrix(0.52112417,0,0,0.52112417,20.767536,5.3452696)">
    <path
       style="fill:#555555;fill-opacity:1"
       d="M 1.6035156,3.90625 C 1.2699962,3.90625 1,4.1772302 1,4.5097656 l 0,6.9804684 c 0,0.334022 0.2699962,0.603516 0.6035156,0.603516 l 11.7148434,0 c 0.333993,0 0.603516,-0.269996 0.603516,-0.603516 l 0,-1.238281 0.474609,0 C 14.730488,10.251953 15,9.9834201 15,9.6484375 L 15,6.4042969 C 15.000521,6.0702975 14.730484,5.7988281 14.396484,5.7988281 l -0.474609,0 0,-1.2890625 c 0,-0.3325354 -0.269497,-0.6035156 -0.603516,-0.6035156 z"
       transform="matrix(1.9189285,0,0,1.9189285,-39.851416,-10.25719)"
       id="path7-4-0-7-3-8-0-1-9-3"
       inkscape:connector-curvature="0"
       sodipodi:nodetypes="sssssscsscscsss" />
    <g
       style="fill:#ffffff;fill-opacity:1"
       transform="matrix(0.02205965,0,0,0.02205965,-29.900002,-0.39149138)"
       id="g3-9">
      <g
         style="fill:#ffffff;fill-opacity:1"
         id="g5-4" />
    </g>
  </g>
</svg>

<?xml version="1.0" encoding="UTF-8" standalone="no"?>
<!-- Created with Inkscape (http://www.inkscape.org/) -->

<svg
   xmlns:dc="http://purl.org/dc/elements/1.1/"
   xmlns:cc="http://creativecommons.org/ns#"
   xmlns:rdf="http://www.w3.org/1999/02/22-rdf-syntax-ns#"
   xmlns:svg="http://www.w3.org/2000/svg"
   xmlns="http://www.w3.org/2000/svg"
   xmlns:sodipodi="http://sodipodi.sourceforge.net/DTD/sodipodi-0.dtd"
   xmlns:inkscape="http://www.inkscape.org/namespaces/inkscape"
   id="svg7384"
   style="enable-background:new"
   height="16"
   width="16"
   version="1.1"
   inkscape:version="0.91 r13725"
   sodipodi:docname="battery-full-charging-symbolic.svg">
  <sodipodi:namedview
     pagecolor="#a1a1a1"
     bordercolor="#666666"
     borderopacity="1"
     objecttolerance="10"
     gridtolerance="10"
     guidetolerance="10"
     inkscape:pageopacity="0"
     inkscape:pageshadow="2"
     inkscape:window-width="1366"
     inkscape:window-height="633"
     id="namedview11"
     showgrid="false"
     inkscape:zoom="14.75"
     inkscape:cx="-5.1864407"
     inkscape:cy="8"
     inkscape:window-x="0"
     inkscape:window-y="33"
     inkscape:window-maximized="1"
     inkscape:current-layer="svg7384" />
  <metadata
     id="metadata90">
    <rdf:RDF>
      <cc:Work
         rdf:about="">
        <dc:format>image/svg+xml</dc:format>
        <dc:type
           rdf:resource="http://purl.org/dc/dcmitype/StillImage" />
        <dc:title>Paper Symbolic Icon Theme</dc:title>
      </cc:Work>
    </rdf:RDF>
  </metadata>
  <title
     id="title8473">Paper Symbolic Icon Theme</title>
  <defs
     id="defs7386">
    <filter
       id="filter7554"
       style="color-interpolation-filters:sRGB">
      <feBlend
         id="feBlend7556"
         in2="BackgroundImage"
         mode="darken" />
    </filter>
  </defs>
  <g
     style="fill:#ffffff;fill-opacity:1"
     id="g4250"
     transform="matrix(0.52112417,0,0,0.52112417,20.767536,5.3452696)">
    <path
       style="fill:#555555;fill-opacity:1"
       d="M 1.6035156 3.90625 C 1.2699962 3.90625 1 4.1772302 1 4.5097656 L 1 11.490234 C 1 11.824256 1.2699962 12.09375 1.6035156 12.09375 L 13.318359 12.09375 C 13.652352 12.09375 13.921875 11.823754 13.921875 11.490234 L 13.921875 10.251953 L 14.396484 10.251953 C 14.730488 10.251953 15 9.9834201 15 9.6484375 L 15 6.4042969 C 15.000521 6.0702975 14.730484 5.7988281 14.396484 5.7988281 L 13.921875 5.7988281 L 13.921875 4.5097656 C 13.921875 4.1772302 13.652378 3.90625 13.318359 3.90625 L 1.6035156 3.90625 z M 7.0429688 5.921875 L 7.0625 5.921875 L 8.3515625 8.3496094 L 11.783203 6.8945312 L 8.0605469 10.296875 L 6.7714844 7.8671875 L 3.3398438 9.3222656 L 7.0429688 5.921875 z "
       transform="matrix(1.9189285,0,0,1.9189285,-39.851416,-10.25719)"
       id="path7-4-0-7-3-8-0-1-9-3" />
    <g
       style="fill:#ffffff;fill-opacity:1"
       transform="matrix(0.02205965,0,0,0.02205965,-29.900002,-0.39149138)"
       id="g3-9">
      <g
         style="fill:#ffffff;fill-opacity:1"
         id="g5-4" />
    </g>
  </g>
</svg>
